img/enterprises/brand4.svg

<svg width="210" height="79" viewBox="0 0 210 79" fill="none" xmlns="http://www.w3.org/2000/svg">
<path d="M75.7066 51.566C73.3498 51.566 71.2666 51.0911 69.457 50.1423C67.6468 49.1715 66.2476 47.8017 65.2585 46.0333C64.27 44.2645 63.7754 42.1831 63.7754 39.7889C63.7754 37.3946 64.27 35.3132 65.2585 33.5446C66.2476 31.7543 67.6468 30.3846 69.457 29.4355C71.2666 28.4649 73.3498 27.9796 75.7066 27.9796C77.3062 27.9796 78.7158 28.1522 79.9365 28.4973C81.1781 28.8208 82.3142 29.3385 83.3453 30.0503V34.7416C82.4197 33.9651 81.3571 33.4043 80.1575 33.0592C78.9789 32.6925 77.6323 32.5092 76.1171 32.5092C74.7075 32.5092 73.4338 32.8112 72.2977 33.4151C71.1826 33.9975 70.2985 34.8387 69.6465 35.9387C68.9939 37.0387 68.6679 38.3221 68.6679 39.7889C68.6679 41.2772 68.9624 42.5821 69.5515 43.7037C70.162 44.8038 71.0141 45.6558 72.1082 46.2597C73.2023 46.8637 74.4655 47.1656 75.8961 47.1656C77.2007 47.1656 78.3368 46.9284 79.3049 46.4538V42.086H75.7381V38.4623H83.9449V49.3657C81.8617 50.8324 79.1159 51.566 75.7066 51.566Z" fill="#81818B"/>
<path d="M85.0531 35.5504H89.6616V37.7829C90.2722 37.028 91.1242 36.4563 92.2183 36.0682C93.3124 35.6583 94.5546 35.4534 95.9432 35.4534V39.1742C94.4911 39.1742 93.2074 39.4006 92.0923 39.8536C90.9977 40.3065 90.2401 40.9967 89.8196 41.9242V51.0806H85.0531V35.5504Z" fill="#81818B"/>
<path d="M105.103 51.566C102.199 51.566 99.9153 50.8539 98.2532 49.4302C96.5905 47.9855 95.7594 45.9685 95.7594 43.3802C95.7594 40.8134 96.496 38.7859 97.9692 37.2976C99.4633 35.8093 101.589 35.0652 104.345 35.0652C106.155 35.0652 107.691 35.4103 108.954 36.1005C110.216 36.7907 111.174 37.7506 111.826 38.98C112.479 40.1879 112.805 41.5576 112.805 43.089V45.0626H100.305C100.641 47.047 102.451 48.0394 105.734 48.0394C106.702 48.0394 107.702 47.953 108.733 47.7803C109.764 47.6078 110.658 47.3705 111.416 47.0686V50.4983C110.679 50.8214 109.732 51.0806 108.575 51.2749C107.418 51.4686 106.26 51.566 105.103 51.566ZM108.291 41.8919C108.228 40.8566 107.849 40.0585 107.155 39.4977C106.46 38.9153 105.502 38.6241 104.282 38.6241C103.083 38.6241 102.136 38.9153 101.441 39.4977C100.747 40.0801 100.368 40.8781 100.305 41.8919H108.291Z" fill="#81818B"/>
<path d="M122.574 51.566C119.671 51.566 117.387 50.8539 115.725 49.4302C114.063 47.9855 113.231 45.9685 113.231 43.3802C113.231 40.8134 113.967 38.7859 115.441 37.2976C116.935 35.8093 119.06 35.0652 121.817 35.0652C123.626 35.0652 125.163 35.4103 126.426 36.1005C127.688 36.7907 128.645 37.7506 129.297 38.98C129.95 40.1879 130.276 41.5576 130.276 43.089V45.0626H117.776C118.113 47.047 119.923 48.0394 123.206 48.0394C124.174 48.0394 125.174 47.953 126.204 47.7803C127.235 47.6078 128.13 47.3705 128.887 47.0686V50.4983C128.151 50.8214 127.204 51.0806 126.047 51.2749C124.889 51.4686 123.732 51.566 122.574 51.566ZM125.763 41.8919C125.699 40.8566 125.321 40.0585 124.627 39.4977C123.931 38.9153 122.974 38.6241 121.754 38.6241C120.554 38.6241 119.608 38.9153 118.913 39.4977C118.218 40.0801 117.84 40.8781 117.776 41.8919H125.763Z" fill="#81818B"/>
<path d="M131.334 35.5505H135.942V37.4594C136.638 36.6613 137.458 36.0682 138.405 35.6799C139.373 35.2701 140.383 35.0652 141.435 35.0652C143.498 35.0652 145.034 35.6368 146.043 36.7799C147.075 37.9016 147.591 39.4222 147.591 41.3419V51.0806H142.824V41.8919C142.824 39.8859 141.919 38.883 140.109 38.883C139.31 38.883 138.563 39.0879 137.868 39.4977C137.174 39.8859 136.584 40.4683 136.1 41.2448V51.0806H131.334V35.5505Z" fill="#81818B"/>
<path d="M151.795 33.1563C151.059 33.1563 150.439 32.9082 149.934 32.4121C149.428 31.916 149.176 31.2905 149.176 30.5356C149.176 29.8022 149.428 29.1875 149.934 28.6914C150.439 28.1737 151.059 27.9149 151.795 27.9149C152.532 27.9149 153.153 28.1737 153.658 28.6914C154.163 29.1875 154.416 29.8022 154.416 30.5356C154.416 31.2905 154.163 31.916 153.658 32.4121C153.153 32.9082 152.532 33.1563 151.795 33.1563ZM149.397 35.5505H154.195V51.0806H149.397V35.5505Z" fill="#81818B"/>
<path d="M162.324 51.566C161.188 51.566 159.967 51.4362 158.662 51.1775C157.379 50.9403 156.369 50.5952 155.632 50.1423V46.3244C156.474 46.8421 157.484 47.2627 158.662 47.5862C159.841 47.9096 160.935 48.0714 161.945 48.0714C162.808 48.0714 163.439 47.996 163.839 47.8451C164.238 47.6941 164.438 47.4137 164.438 47.0039C164.438 46.6803 164.323 46.4215 164.091 46.2274C163.86 46.0117 163.502 45.8283 163.018 45.6774C162.555 45.5048 161.776 45.2567 160.682 44.9332C159.399 44.5449 158.388 44.1567 157.652 43.7685C156.937 43.3586 156.39 42.8518 156.011 42.2478C155.653 41.6439 155.474 40.8673 155.474 39.9183C155.474 38.3005 156.095 37.0927 157.337 36.2946C158.599 35.475 160.303 35.0652 162.45 35.0652C163.502 35.0652 164.586 35.1838 165.701 35.4211C166.837 35.6368 167.711 35.928 168.321 36.2946V40.0154C167.711 39.6055 166.911 39.2712 165.922 39.0124C164.954 38.7536 164.007 38.6241 163.081 38.6241C162.218 38.6241 161.545 38.7104 161.061 38.883C160.598 39.0555 160.366 39.3791 160.366 39.8536C160.366 40.2634 160.587 40.5762 161.03 40.7919C161.492 41.0076 162.345 41.2772 163.586 41.6008L164.218 41.7625C165.543 42.1292 166.574 42.539 167.311 42.992C168.047 43.4233 168.563 43.9518 168.858 44.5773C169.173 45.1813 169.331 45.947 169.331 46.8744C169.331 48.2981 168.731 49.4411 167.532 50.3041C166.333 51.145 164.596 51.566 162.324 51.566Z" fill="#81818B"/>
<path d="M170.433 27.1707H175.199V37.3299C175.915 36.575 176.725 36.0142 177.63 35.6475C178.535 35.2592 179.503 35.0651 180.534 35.0651C182.596 35.0651 184.132 35.6367 185.142 36.7799C186.173 37.9015 186.689 39.4222 186.689 41.3419V51.0806H181.923V41.8919C181.923 39.8859 181.018 38.8829 179.208 38.8829C178.408 38.8829 177.662 39.0878 176.967 39.4977C176.272 39.8859 175.683 40.4683 175.199 41.2448V51.0806H170.433V27.1707Z" fill="#81818B"/>
<path fill-rule="evenodd" clip-rule="evenodd" d="M47.4972 31.7486C47.4972 35.8583 44.2471 39.19 40.2375 39.19C36.2279 39.19 32.9776 35.8583 32.9776 31.7486C32.9776 27.6388 36.2279 24.3071 40.2375 24.3071C44.2471 24.3071 47.4972 27.6388 47.4972 31.7486ZM23.3503 38.6492C31.2598 38.1027 38.1532 44.1727 38.7953 52.2971C38.8619 53.1389 38.8587 53.97 38.7907 54.7848C30.8812 55.3313 23.9878 49.2612 23.3456 41.1368C23.2792 40.2949 23.2823 39.4637 23.3503 38.6492ZM43.9083 54.5002C51.8346 53.8419 57.7563 46.7764 57.2234 38.6691C56.4286 38.5995 55.618 38.5962 54.7963 38.6644C46.87 39.3225 40.9483 46.3883 41.4814 54.4955C42.2761 54.5653 43.0869 54.5685 43.9083 54.5002Z" fill="#81818B"/>
</svg>

<svg xmlns="http://www.w3.org/2000/svg" width="210" height="79" fill="none"><path fill="#81818B" d="M75.707 51.566c-2.357 0-4.44-.475-6.25-1.424-1.81-.97-3.21-2.34-4.198-4.109-.989-1.769-1.484-3.85-1.484-6.244 0-2.394.495-4.476 1.483-6.244.99-1.79 2.389-3.16 4.199-4.11 1.81-.97 3.893-1.455 6.25-1.455 1.6 0 3.009.172 4.23.517 1.241.324 2.377.841 3.408 1.553v4.692a8.597 8.597 0 0 0-3.188-1.683c-1.178-.366-2.525-.55-4.04-.55-1.41 0-2.683.302-3.82.906a6.563 6.563 0 0 0-2.65 2.524c-.653 1.1-.98 2.383-.98 3.85 0 1.488.295 2.793.885 3.915a6.418 6.418 0 0 0 2.556 2.556c1.094.604 2.358.906 3.788.906 1.305 0 2.44-.238 3.409-.712v-4.368h-3.567v-3.624h8.207v10.904c-2.083 1.466-4.83 2.2-8.238 2.2ZM85.053 35.55h4.609v2.233c.61-.755 1.462-1.327 2.556-1.715 1.094-.41 2.337-.615 3.725-.615v3.721c-1.452 0-2.736.227-3.85.68-1.095.453-1.853 1.143-2.273 2.07v9.157h-4.767V35.55ZM105.103 51.566c-2.904 0-5.188-.712-6.85-2.136-1.662-1.444-2.494-3.462-2.494-6.05 0-2.567.737-4.594 2.21-6.082 1.494-1.489 3.62-2.233 6.376-2.233 1.81 0 3.346.345 4.609 1.035 1.262.69 2.22 1.65 2.872 2.88.653 1.208.979 2.578.979 4.109v1.974h-12.5c.336 1.984 2.146 2.976 5.429 2.976.968 0 1.968-.086 2.999-.259 1.031-.172 1.925-.41 2.683-.711v3.43c-.737.322-1.684.582-2.841.776a21 21 0 0 1-3.472.291Zm3.188-9.674c-.063-1.035-.442-1.834-1.136-2.394-.695-.583-1.653-.874-2.873-.874-1.199 0-2.146.291-2.841.874-.694.582-1.073 1.38-1.136 2.394h7.986ZM122.574 51.566c-2.903 0-5.187-.712-6.849-2.136-1.662-1.444-2.494-3.462-2.494-6.05 0-2.567.736-4.594 2.21-6.082 1.494-1.489 3.619-2.233 6.376-2.233 1.809 0 3.346.345 4.609 1.035 1.262.69 2.219 1.65 2.871 2.88.653 1.208.979 2.578.979 4.109v1.974h-12.5c.337 1.984 2.147 2.976 5.43 2.976.968 0 1.968-.086 2.998-.259 1.031-.172 1.926-.41 2.683-.711v3.43c-.736.322-1.683.582-2.84.776a21.012 21.012 0 0 1-3.473.291Zm3.189-9.674c-.064-1.035-.442-1.834-1.136-2.394-.696-.583-1.653-.874-2.873-.874-1.2 0-2.146.291-2.841.874-.695.582-1.073 1.38-1.137 2.394h7.987ZM131.334 35.55h4.608v1.91a6.512 6.512 0 0 1 2.463-1.78 7.695 7.695 0 0 1 3.03-.615c2.063 0 3.599.572 4.608 1.715 1.032 1.122 1.548 2.642 1.548 4.562v9.739h-4.767v-9.19c0-2.005-.905-3.008-2.715-3.008-.799 0-1.546.205-2.241.615-.694.388-1.284.97-1.768 1.747v9.836h-4.766V35.55ZM151.795 33.156c-.736 0-1.356-.248-1.861-.744-.506-.496-.758-1.121-.758-1.876 0-.734.252-1.349.758-1.845a2.498 2.498 0 0 1 1.861-.776c.737 0 1.358.259 1.863.776.505.497.758 1.111.758 1.845 0 .755-.253 1.38-.758 1.876s-1.126.744-1.863.744Zm-2.398 2.395h4.798v15.53h-4.798V35.55ZM162.324 51.566c-1.136 0-2.357-.13-3.662-.389-1.283-.237-2.293-.582-3.03-1.035v-3.818c.842.518 1.852.939 3.03 1.262 1.179.324 2.273.485 3.283.485.863 0 1.494-.075 1.894-.226.399-.15.599-.431.599-.841 0-.324-.115-.582-.347-.777-.231-.215-.589-.399-1.073-.55-.463-.172-1.242-.42-2.336-.744-1.283-.388-2.294-.776-3.03-1.164-.715-.41-1.262-.917-1.641-1.521-.358-.604-.537-1.38-.537-2.33 0-1.617.621-2.825 1.863-3.623 1.262-.82 2.966-1.23 5.113-1.23 1.052 0 2.136.119 3.251.356 1.136.216 2.01.507 2.62.874v3.72c-.61-.41-1.41-.744-2.399-1.003a10.974 10.974 0 0 0-2.841-.388c-.863 0-1.536.086-2.02.259-.463.172-.695.496-.695.97 0 .41.221.723.664.939.462.216 1.315.485 2.556.809l.632.162c1.325.366 2.356.776 3.093 1.229.736.431 1.252.96 1.547 1.585.315.604.473 1.37.473 2.297 0 1.424-.6 2.567-1.799 3.43-1.199.841-2.936 1.262-5.208 1.262ZM170.433 27.17h4.766v10.16a6.905 6.905 0 0 1 2.431-1.682 7.286 7.286 0 0 1 2.904-.583c2.062 0 3.598.572 4.608 1.715 1.031 1.121 1.547 2.642 1.547 4.562v9.739h-4.766v-9.19c0-2.005-.905-3.008-2.715-3.008-.8 0-1.546.205-2.241.615-.695.388-1.284.97-1.768 1.747v9.836h-4.766V27.17Z"/><path fill="#81818B" fill-rule="evenodd" d="M47.497 31.749c0 4.11-3.25 7.441-7.26 7.441s-7.26-3.332-7.26-7.441c0-4.11 3.25-7.442 7.26-7.442s7.26 3.332 7.26 7.442Zm-24.147 6.9c7.91-.546 14.803 5.524 15.445 13.648.067.842.064 1.673-.004 2.488-7.91.546-14.803-5.524-15.445-13.648a15.366 15.366 0 0 1 .004-2.488ZM43.908 54.5c7.927-.658 13.848-7.724 13.315-15.83a14.27 14.27 0 0 0-2.427-.006c-7.926.658-13.848 7.724-13.315 15.831.795.07 1.606.074 2.427.005Z" clip-rule="evenodd"/></svg>
